X: 11702
T: The KEBBUCKSTANE WEDDING
Q: "With spirit."
%R: jig
B: W. Hamilton "Universal Tune-Book" Vol. 1 Glasgow 1844 p.170 #2
S: http://imslp.org/wiki/Hamilton's_Universal_Tune-Book_(Various)
Z: 2016 John Chambers <jc:trillian.mit.edu>
M: 6/8
L: 1/8
K: Am
% - - - - - - - - - - - - - - - - - - - - - - - - -
[|\
e3 ABd | eed B2g | e2e AAB | d<BG A<Bd |\
e<ee ABd | e2d B2d | e>eg d>dg | B>AG A<Bd |]
e<AB e<AB | eAB eed | e<AB e<AB | dBG ABd |\
eAB e2d | eAB e2d | eeg ddg | B>AG A<Bd |]
% - - - - - - - - - - - - - - - - - - - - - - - - -
%%begintext align
%% From the "Caledonian Museum,"
%% a collection of ancient and modern Scots tunes,
%% published in Edin.
%%endtext
%%sep 1 1 300

%%sep 1 1 500
%%sep 1 1 500

